icons/neo4j/neo4j-plain-wordmark.svg

<svg width="128" height="128" viewBox="0 0 128 128" fill="none" xmlns="http://www.w3.org/2000/svg">
<path d="M25.1072 51.6667C18.336 51.6667 13.792 55.7733 13.792 63.74V69.42C14.4795 69.068 15.234 68.8812 16 68.8733C16.7674 68.8735 17.5248 69.0559 18.2144 69.4067V63.7133C18.2144 58.5467 20.9536 55.8933 25.1264 55.8933C29.2992 55.8933 32 58.5467 32 63.7133V76.1267H36.4096V63.7133C36.4224 55.7 31.8784 51.6667 25.1072 51.6667Z" fill="black"/>
<path d="M38.8224 64.2C38.8224 56.9533 43.9424 51.64 51.1552 51.64C58.368 51.64 63.3984 56.9733 63.3984 64.2V65.8867H43.456C44.096 70.14 47.168 72.5067 51.136 72.5067C54.1056 72.5067 56.192 71.54 57.536 69.4667H62.4C60.64 73.9067 56.4672 76.76 51.136 76.76C43.9232 76.76 38.8224 71.4467 38.8224 64.2ZM58.7584 61.7867C57.8752 57.9667 54.8672 55.8933 51.1552 55.8933C47.4432 55.8933 44.48 58.02 43.5968 61.7867H58.7584Z" fill="black"/>
<path d="M65.7536 64.2C65.7536 56.96 70.8736 51.6467 78.0864 51.6467C85.2992 51.6467 90.4192 56.98 90.4192 64.2C90.4192 71.42 85.2992 76.76 78.0864 76.76C70.8736 76.76 65.7536 71.4467 65.7536 64.2ZM85.9712 64.2C85.9712 59.3733 82.816 55.8933 78.0864 55.8933C73.3568 55.8933 70.208 59.3733 70.208 64.2C70.208 69.0267 73.3568 72.5067 78.08 72.5067C82.8032 72.5067 85.9712 69.0333 85.9712 64.2V64.2Z" fill="black"/>
<path d="M115.61 80.88H116.122C118.95 80.88 120.013 79.5467 120.013 76.2133V52.44H124.422V75.9067C124.422 81.8 122.195 84.84 116.538 84.84H115.61V80.88Z" fill="black"/>
<path d="M113.408 78.4267H108.998V72.7667H97.8304C96.8108 72.8037 95.8012 72.5462 94.9134 72.0226C94.0256 71.499 93.2941 70.7298 92.8 69.8C92.3986 68.9262 92.2422 67.9521 92.3486 66.9897C92.455 66.0274 92.82 65.1159 93.4016 64.36L103.424 50.66C104.117 49.6861 105.086 48.9644 106.195 48.5973C107.304 48.2302 108.496 48.2364 109.601 48.6151C110.707 48.9937 111.669 49.7255 112.353 50.7065C113.036 51.6876 113.405 52.8679 113.408 54.08V68.6933H116.717V72.7667H113.408V78.4267ZM97.0688 66.8667C96.937 67.062 96.8656 67.2946 96.864 67.5333C96.8631 67.685 96.8912 67.8354 96.9465 67.9757C97.0019 68.1161 97.0834 68.2436 97.1864 68.3508C97.2894 68.4581 97.4118 68.543 97.5465 68.6007C97.6812 68.6583 97.8256 68.6875 97.9712 68.6867H108.998V53.9667C109.007 53.7189 108.936 53.4752 108.799 53.2729C108.661 53.0706 108.464 52.9209 108.237 52.8467C108.106 52.8078 107.97 52.7876 107.834 52.7867C107.661 52.7866 107.491 52.8309 107.34 52.9159C107.188 53.0008 107.058 53.1236 106.963 53.2733L97.0688 66.8667Z" fill="black"/>
<path d="M122.24 42.6867C121.493 42.6853 120.762 42.9149 120.14 43.3463C119.519 43.7777 119.034 44.3915 118.747 45.1101C118.46 45.8287 118.384 46.6198 118.529 47.3832C118.674 48.1467 119.033 48.8482 119.561 49.3989C120.089 49.9497 120.762 50.3249 121.495 50.4772C122.227 50.6296 122.987 50.5521 123.677 50.2545C124.367 49.957 124.958 49.4529 125.373 48.8059C125.788 48.1589 126.01 47.3982 126.01 46.62C126.01 45.578 125.613 44.5785 124.906 43.8411C124.199 43.1036 123.24 42.6884 122.24 42.6867V42.6867Z" fill="black"/>
<path d="M15.808 70.3333C14.9891 70.3342 14.1931 70.6153 13.5424 71.1333L9.3952 68.18C9.4875 67.8348 9.53485 67.4783 9.536 67.12C9.54488 66.3417 9.33152 65.5783 8.92303 64.9266C8.51454 64.2749 7.92934 63.7643 7.24174 63.4598C6.55414 63.1552 5.79516 63.0704 5.06119 63.216C4.32721 63.3617 3.65134 63.7313 3.11941 64.2779C2.58748 64.8245 2.22348 65.5234 2.07364 66.2859C1.9238 67.0484 1.99488 67.8401 2.27784 68.5604C2.5608 69.2807 3.04289 69.8972 3.66289 70.3316C4.28289 70.766 5.01282 70.9986 5.76 71C6.57918 71.0006 7.37561 70.7193 8.0256 70.2L12.16 73.1733C11.9722 73.8687 11.9722 74.6046 12.16 75.3L8.0128 78.2533C7.36629 77.7368 6.57479 77.4557 5.76 77.4533C5.01263 77.452 4.2817 77.6818 3.65976 78.1134C3.03782 78.5451 2.55285 79.1594 2.26626 79.8784C1.97967 80.5974 1.90435 81.3888 2.04985 82.1524C2.19534 82.916 2.5551 83.6175 3.08357 84.168C3.61204 84.7184 4.28544 85.0932 5.01851 85.2447C5.75158 85.3963 6.51133 85.3179 7.20157 85.0193C7.8918 84.7208 8.48147 84.2156 8.89589 83.5678C9.31032 82.9199 9.53086 82.1585 9.5296 81.38C9.5294 81.0265 9.48421 80.6745 9.3952 80.3333L13.5424 77.38C14.1931 77.898 14.9891 78.1791 15.808 78.18C16.7605 78.1091 17.6518 77.665 18.3024 76.937C18.9531 76.2091 19.3149 75.2513 19.3149 74.2567C19.3149 73.262 18.9531 72.3043 18.3024 71.5763C17.6518 70.8483 16.7605 70.4042 15.808 70.3333V70.3333Z" fill="black"/>
</svg>

<svg viewBox="0 0 128 128" fill="none" xmlns="http://www.w3.org/2000/svg"><path d="M25.107 51.667c-6.771 0-11.315 4.106-11.315 12.073v5.68A4.954 4.954 0 0116 68.873c.767 0 1.525.183 2.214.534v-5.694c0-5.166 2.74-7.82 6.912-7.82 4.173 0 6.874 2.654 6.874 7.82v12.414h4.41V63.713c.012-8.013-4.532-12.046-11.303-12.046zM38.822 64.2c0-7.247 5.12-12.56 12.333-12.56s12.243 5.333 12.243 12.56v1.687H43.456c.64 4.253 3.712 6.62 7.68 6.62 2.97 0 5.056-.967 6.4-3.04H62.4c-1.76 4.44-5.933 7.293-11.264 7.293-7.213 0-12.314-5.313-12.314-12.56zm19.936-2.413c-.883-3.82-3.89-5.894-7.603-5.894-3.712 0-6.675 2.127-7.558 5.894h15.161zM65.754 64.2c0-7.24 5.12-12.553 12.332-12.553 7.213 0 12.333 5.333 12.333 12.553 0 7.22-5.12 12.56-12.333 12.56-7.212 0-12.332-5.313-12.332-12.56zm20.217 0c0-4.827-3.155-8.307-7.885-8.307s-7.878 3.48-7.878 8.307 3.149 8.307 7.872 8.307 7.891-3.474 7.891-8.307zM115.61 80.88h.512c2.828 0 3.891-1.333 3.891-4.667V52.44h4.409v23.467c0 5.893-2.227 8.933-7.884 8.933h-.928v-3.96zM113.408 78.427h-4.41v-5.66H97.83a5.354 5.354 0 01-2.917-.744A5.653 5.653 0 0192.8 69.8a5.336 5.336 0 01-.451-2.81 5.262 5.262 0 011.053-2.63l10.022-13.7a5.548 5.548 0 012.771-2.063 5.325 5.325 0 013.406.018 5.556 5.556 0 012.752 2.091 5.935 5.935 0 011.055 3.374v14.613h3.309v4.074h-3.309v5.66zm-16.34-11.56a1.207 1.207 0 00-.121 1.109c.055.14.136.268.24.375a1.065 1.065 0 00.785.336h11.026v-14.72a1.164 1.164 0 00-.199-.694 1.093 1.093 0 00-.562-.426 1.451 1.451 0 00-.403-.06c-.173 0-.343.044-.494.129a1.06 1.06 0 00-.377.357l-9.894 13.594zM122.24 42.687a3.67 3.67 0 00-2.1.66 3.908 3.908 0 00-1.393 1.763 4.084 4.084 0 00-.218 2.273 3.986 3.986 0 001.032 2.016c.528.55 1.201.926 1.934 1.078a3.633 3.633 0 002.182-.222 3.815 3.815 0 001.696-1.45 4.053 4.053 0 00.637-2.185 4.017 4.017 0 00-1.104-2.779 3.702 3.702 0 00-2.666-1.154z" fill="#000"/><path d="M15.808 70.333c-.819.001-1.615.282-2.266.8L9.395 68.18c.093-.345.14-.702.141-1.06a4.047 4.047 0 00-.613-2.193 3.811 3.811 0 00-1.681-1.467 3.63 3.63 0 00-2.18-.244 3.723 3.723 0 00-1.943 1.062 3.978 3.978 0 00-1.045 2.008 4.08 4.08 0 00.204 2.274c.283.72.765 1.337 1.385 1.772.62.434 1.35.667 2.097.668.82 0 1.616-.28 2.266-.8l4.134 2.973a4.084 4.084 0 000 2.127l-4.147 2.953a3.624 3.624 0 00-2.253-.8 3.67 3.67 0 00-2.1.66 3.903 3.903 0 00-1.394 1.765 4.086 4.086 0 00-.216 2.274 3.987 3.987 0 001.034 2.016c.528.55 1.201.925 1.935 1.077a3.635 3.635 0 002.183-.226 3.814 3.814 0 001.694-1.451c.414-.648.635-1.41.634-2.188 0-.353-.046-.706-.135-1.047l4.147-2.953c.651.518 1.447.8 2.266.8a3.717 3.717 0 002.494-1.243 4.024 4.024 0 001.013-2.68c0-.995-.362-1.953-1.013-2.68a3.717 3.717 0 00-2.494-1.244z" fill="#000"/></svg>
